icons/acemanifest.svg

<svg width="16" height="16" viewBox="0 0 16 16" fill="none" xmlns="http://www.w3.org/2000/svg">
<path fill-rule="evenodd" clip-rule="evenodd" d="M8 14C3.16084 14 2 12.8392 2 8C2 3.16084 3.16084 2 8 2C12.8392 2 14 3.16084 14 8C14 12.8392 12.8392 14 8 14ZM5 4H6V5H5V4ZM11 4H10V7H11V4ZM4 7.5C4 8.15311 4.4174 8.70873 5 8.91465V12H6V8.91465C6.5826 8.70873 7 8.15311 7 7.5C7 6.67157 6.32843 6 5.5 6C4.67157 6 4 6.67157 4 7.5ZM10 10.9146C9.4174 10.7087 9 10.1531 9 9.5C9 8.67157 9.67157 8 10.5 8C11.3284 8 12 8.67157 12 9.5C12 10.1531 11.5826 10.7087 11 10.9146V12H10V10.9146Z" fill="#7C7CFF"/>
</svg>

<svg xmlns="http://www.w3.org/2000/svg" width="16" height="16" fill="none"><path fill="#7C7CFF" fill-rule="evenodd" d="M8 14c-4.84 0-6-1.16-6-6s1.16-6 6-6 6 1.16 6 6-1.16 6-6 6ZM5 4h1v1H5V4Zm6 0h-1v3h1V4ZM4 7.5a1.5 1.5 0 0 0 1 1.415V12h1V8.915A1.5 1.5 0 1 0 4 7.5Zm6 3.415a1.5 1.5 0 1 1 1 0V12h-1v-1.085Z" clip-rule="evenodd"/></svg>
